SVG/info-circle.svg

<?xml version="1.0" encoding="utf-8"?>
<!-- Generated by IcoMoon.io -->
<!DOCTYPE svg PUBLIC "-//W3C//DTD SVG 1.1//EN" "http://www.w3.org/Graphics/SVG/1.1/DTD/svg11.dtd">
<svg version="1.1" xmlns="http://www.w3.org/2000/svg" xmlns:xlink="http://www.w3.org/1999/xlink" width="12" height="14" viewBox="0 0 12 14">
<path fill="#444444" d="M8 10.75v-1.25q0-0.109-0.070-0.18t-0.18-0.070h-0.75v-4q0-0.109-0.070-0.18t-0.18-0.070h-2.5q-0.109 0-0.18 0.070t-0.070 0.18v1.25q0 0.109 0.070 0.18t0.18 0.070h0.75v2.5h-0.75q-0.109 0-0.18 0.070t-0.070 0.18v1.25q0 0.109 0.070 0.18t0.18 0.070h3.5q0.109 0 0.18-0.070t0.070-0.18zM7 3.75v-1.25q0-0.109-0.070-0.18t-0.18-0.070h-1.5q-0.109 0-0.18 0.070t-0.070 0.18v1.25q0 0.109 0.070 0.18t0.18 0.070h1.5q0.109 0 0.18-0.070t0.070-0.18zM12 7q0 1.633-0.805 3.012t-2.184 2.184-3.012 0.805-3.012-0.805-2.184-2.184-0.805-3.012 0.805-3.012 2.184-2.184 3.012-0.805 3.012 0.805 2.184 2.184 0.805 3.012z"></path>
</svg>

<svg xmlns="http://www.w3.org/2000/svg" viewBox="0 0 12 14"><path d="M8 10.75V9.5q0-.11-.07-.18t-.18-.07H7v-4q0-.11-.07-.18T6.75 5h-2.5q-.11 0-.18.07T4 5.25V6.5q0 .11.07.18t.18.07H5v2.5h-.75q-.11 0-.18.07T4 9.5v1.25q0 .11.07.18t.18.07h3.5q.11 0 .18-.07t.07-.18zm-1-7V2.5q0-.11-.07-.18t-.18-.07h-1.5q-.11 0-.18.07T5 2.5v1.25q0 .11.07.18t.18.07h1.5q.11 0 .18-.07T7 3.75zM12 7q0 1.633-.805 3.012T9.01 12.196 6 13t-3.013-.804-2.184-2.184T-.002 7t.805-3.012 2.184-2.184T6 1t3.01.804 2.185 2.184T12 7z" /></svg>
